src/rounded/icons/fi-rr-time-forward-ten.svg

<svg id="Layer_1" height="512" viewBox="0 0 24 24" width="512" xmlns="http://www.w3.org/2000/svg" data-name="Layer 1"><path d="m21 15a3 3 0 0 0 -3 3v3a3 3 0 0 0 6 0v-3a3 3 0 0 0 -3-3zm1 6a1 1 0 0 1 -2 0v-3a1 1 0 0 1 2 0z"/><path d="m13 12v-5a1 1 0 0 0 -2 0v4h-3a1 1 0 0 0 0 2h4a1 1 0 0 0 1-1z"/><path d="m23 2a1 1 0 0 0 -1 1v2.374a12 12 0 1 0 -14.364 17.808 1.015 1.015 0 0 0 .364.068 1 1 0 0 0 .364-1.932 10 10 0 1 1 12.272-14.318h-2.636a1 1 0 0 0 0 2h3a3 3 0 0 0 3-3v-3a1 1 0 0 0 -1-1z"/><path d="m15.383 15.076a1 1 0 0 0 -1.09.217l-3 3a1 1 0 0 0 1.414 1.414l1.293-1.293v4.586a1 1 0 0 0 2 0v-7a1 1 0 0 0 -.617-.924z"/></svg>

<svg id="Layer_1" data-name="Layer 1" xmlns="http://www.w3.org/2000/svg" viewBox="0 0 24 24"><path d="M21,15a3,3,0,0,0-3,3v3a3,3,0,0,0,6,0V18A3,3,0,0,0,21,15Zm1,6a1,1,0,0,1-2,0V18a1,1,0,0,1,2,0Z"/><path d="M13,12V7a1,1,0,0,0-2,0v4H8a1,1,0,0,0,0,2h4A1,1,0,0,0,13,12Z"/><path d="M23,2a1,1,0,0,0-1,1V5.374A12,12,0,1,0,7.636,23.182,1.015,1.015,0,0,0,8,23.25a1,1,0,0,0,.364-1.932A10,10,0,1,1,20.636,7H18a1,1,0,0,0,0,2h3a3,3,0,0,0,3-3V3A1,1,0,0,0,23,2Z"/><path d="M15.383,15.076a1,1,0,0,0-1.09.217l-3,3a1,1,0,0,0,1.414,1.414L14,18.414V23a1,1,0,0,0,2,0V16A1,1,0,0,0,15.383,15.076Z"/></svg>
